evolvere-2-blue-mono/apps/18/android-studio.svg

<?xml version="1.0" encoding="UTF-8" standalone="no"?>
<!-- Created with Inkscape (http://www.inkscape.org/) -->

<svg
   xmlns:dc="http://purl.org/dc/elements/1.1/"
   xmlns:cc="http://creativecommons.org/ns#"
   xmlns:rdf="http://www.w3.org/1999/02/22-rdf-syntax-ns#"
   xmlns:svg="http://www.w3.org/2000/svg"
   xmlns="http://www.w3.org/2000/svg"
   xmlns:sodipodi="http://sodipodi.sourceforge.net/DTD/sodipodi-0.dtd"
   xmlns:inkscape="http://www.inkscape.org/namespaces/inkscape"
   version="1.1"
   width="18"
   height="18"
   id="svg2"
   inkscape:version="0.92.2 5c3e80d, 2017-08-06"
   sodipodi:docname="android-studio.svg">
  <sodipodi:namedview
     pagecolor="#ffffff"
     bordercolor="#666666"
     borderopacity="1"
     objecttolerance="10"
     gridtolerance="10"
     guidetolerance="10"
     inkscape:pageopacity="0"
     inkscape:pageshadow="2"
     inkscape:window-width="1920"
     inkscape:window-height="1033"
     id="namedview6"
     showgrid="true"
     inkscape:zoom="29.5"
     inkscape:cx="2.5001321"
     inkscape:cy="10.780028"
     inkscape:window-x="-10"
     inkscape:window-y="25"
     inkscape:window-maximized="1"
     inkscape:current-layer="svg2"
     inkscape:snap-global="true"
     inkscape:snap-bbox="true"
     inkscape:bbox-paths="true"
     inkscape:bbox-nodes="true"
     inkscape:snap-bbox-edge-midpoints="true"
     inkscape:snap-bbox-midpoints="true"
     inkscape:object-paths="true"
     inkscape:snap-intersection-paths="true"
     inkscape:snap-smooth-nodes="true"
     inkscape:snap-midpoints="true"
     inkscape:snap-object-midpoints="true"
     inkscape:snap-center="true">
    <inkscape:grid
       type="xygrid"
       id="grid2982"
       empspacing="5"
       visible="true"
       enabled="true"
       snapvisiblegridlinesonly="true" />
  </sodipodi:namedview>
  <defs
     id="defs4" />
  <metadata
     id="metadata7">
    <rdf:RDF>
      <cc:Work
         rdf:about="">
        <dc:format>image/svg+xml</dc:format>
        <dc:type
           rdf:resource="http://purl.org/dc/dcmitype/StillImage" />
        <dc:title></dc:title>
      </cc:Work>
    </rdf:RDF>
  </metadata>
  <path
     style="color:#000000;font-style:normal;font-variant:normal;font-weight:normal;font-stretch:normal;font-size:medium;line-height:normal;font-family:sans-serif;font-variant-ligatures:normal;font-variant-position:normal;font-variant-caps:normal;font-variant-numeric:normal;font-variant-alternates:normal;font-feature-settings:normal;text-indent:0;text-align:start;text-decoration:none;text-decoration-line:none;text-decoration-style:solid;text-decoration-color:#000000;letter-spacing:normal;word-spacing:normal;text-transform:none;writing-mode:lr-tb;direction:ltr;text-orientation:mixed;dominant-baseline:auto;baseline-shift:baseline;text-anchor:start;white-space:normal;shape-padding:0;clip-rule:nonzero;display:inline;overflow:visible;visibility:visible;opacity:1;isolation:auto;mix-blend-mode:normal;color-interpolation:sRGB;color-interpolation-filters:linearRGB;solid-color:#000000;solid-opacity:1;vector-effect:none;fill:#f1f3f5;fill-opacity:0.90288714;fill-rule:nonzero;stroke:none;stroke-width:2;stroke-linecap:butt;stroke-linejoin:miter;stroke-miterlimit:4;stroke-dasharray:none;stroke-dashoffset:0;stroke-opacity:1;marker:none;color-rendering:auto;image-rendering:auto;shape-rendering:auto;text-rendering:auto;enable-background:accumulate"
     d="m 7.828125,1 c -0.5522619,5.52e-5 -0.9999448,0.4477381 -1,1 v 0.00781 0.5878906 C 6.0545336,2.8245089 5.4277344,3.4229391 5.4277344,4.2675781 v 2.2851563 c 5.786e-4,0.2967996 0.132955,0.57801 0.3613281,0.7675781 0.039844,0.046313 0.044011,0.1635806 0.080078,0.1992187 L 5.7089844,7.3808594 1.9238281,13.9375 c -0.077748,0.134204 -0.1232164,0.284652 -0.1328125,0.439453 l -0.095703,1.5625 c -0.050282,0.823883 0.8627774,1.35056 1.5507813,0.894531 L 4.5507812,15.972656 C 4.6800599,15.887195 4.787709,15.77286 4.8652344,15.638672 L 6.8125,12.269531 c 0.7220664,0.24717 1.4360462,0.53125 2.234375,0.53125 0.5956945,0 1.196954,-0.164694 1.796875,-0.300781 l 1.810547,3.136719 c 0.07728,0.134898 0.184949,0.249921 0.314453,0.335937 l 1.306641,0.861328 c 0.687657,0.453389 1.597896,-0.07232 1.548828,-0.894531 l -0.09375,-1.5625 c -0.009,-0.154642 -0.0538,-0.30508 -0.13086,-0.439453 l -1.68164,-2.910156 c 0.08351,-0.07267 0.172994,-0.123944 0.253906,-0.203125 1.31971,-1.2840568 2.134766,-3.1149583 2.134766,-5.0878909 -2.8e-5,-0.5484713 -0.44179,-0.9945899 -0.990235,-1 -0.493303,-0.00483 -1.00255,5.759e-4 -1.412109,-0.00391 -0.556072,-0.00537 -1.009736,0.4439022 -1.009766,1 C 12.894069,7.1606787 12.638224,7.3680723 12.125,7.917965 l -0.3125,-0.5390626 -0.160156,0.140625 c 0.04924,-0.048659 0.04818,-0.1544909 0.09375,-0.2109374 0.220159,-0.189503 0.347043,-0.4653694 0.347656,-0.7558556 V 4.2753906 c 4.1e-5,-0.00521 4.1e-5,-0.010417 0,-0.015625 C 12.080744,3.4344787 11.461104,2.8363659 10.695313,2.6015625 V 2.0078125 2 C 10.695257,1.4477381 10.247574,1.0000552 9.6953125,1 H 8.7558594 Z m 0,1 h 0.9277344 0.9394531 v 0.00781 1.3925781 h 0.5175785 c 0.485602,0 0.873294,0.3949709 0.880859,0.875 v 2.2773438 h -0.0078 c -1e-6,0.067523 -0.03808,0.1583788 -0.136719,0.2558594 l -0.410168,0.3613276 1.357421,2.3515625 c 0.277646,-0.203831 0.539078,-0.4264638 0.765625,-0.6875 0.676038,-0.7899664 1.231818,-1.2336669 1.232422,-3.1015625 0.425564,0.00465 0.932197,-7.938e-4 1.41211,0.00391 0,1.6947782 -0.707241,3.2766902 -1.832032,4.3710941 -0.25733,0.25209 -0.546553,0.474225 -0.849609,0.677734 L 14.732422,14.4375 14.826172,16 13.521484,15.138672 11.369141,11.412109 c -0.734174,0.250209 -1.5683425,0.388672 -2.322266,0.388672 -0.9872674,0 -1.9222849,-0.23105 -2.7441406,-0.652343 L 4,15.138672 2.6933594,16 2.7890625,14.4375 6.984375,7.171875 6.5703125,6.8085938 C 6.471659,6.7111132 6.4279569,6.6277704 6.4355469,6.5527344 h -0.00781 V 4.2675781 c 0,-0.4725631 0.3930761,-0.8671875 0.8710937,-0.8671875 H 7.828125 V 2.0078125 Z m 0.9296875,2.3339844 v 0.011719 c -0.510717,0 -0.9296875,0.4160201 -0.9296875,0.9277344 0,0.5116674 0.4189705,0.9277344 0.9296875,0.9277344 h 0.00586 c 0.5107169,-0.00602 0.9316406,-0.416067 0.9316406,-0.9277344 0,-0.5117143 -0.4209237,-0.9216644 -0.9316406,-0.9277344 z m -0.703125,3.78125 -1.03125,1.7871094 c 0.6007317,0.3067422 1.2867408,0.4902342 2.015625,0.4902342 0.5045486,0 1.0802975,-0.09033 1.6015625,-0.24414 L 9.4667969,8.1152344 9.1972656,8.3535156 C 9.0834532,8.4735345 8.923011,8.5332031 8.7636719,8.5332031 l -0.00781,-0.00781 v 0.00781 c -0.1517494,0 -0.3082855,-0.059668 -0.4296875,-0.1796875 z"
     id="path816"
     inkscape:connector-curvature="0" />
  <path
     style="opacity:1;vector-effect:none;fill:#27303a;fill-opacity:0.75328082;stroke:none;stroke-width:1;stroke-linecap:butt;stroke-linejoin:miter;stroke-miterlimit:4;stroke-dasharray:none;stroke-dashoffset:0;stroke-opacity:1;marker:none"
     d="m 7.8272385,2.0000047 v 0.00779 1.3929954 h -0.527626 c -0.4780176,0 -0.8715949,0.3943625 -0.8715949,0.8669256 v 2.284822 h 0.00779 c -0.00759,0.075036 0.036755,0.1577727 0.1354085,0.2552532 L 6.9836628,7.17199 2.7891126,14.437355 2.694171,16 4.0000069,15.137744 6.3035076,11.148642 c 0.8218557,0.421293 1.7551397,0.652136 2.7424071,0.652136 0.7539235,0 1.5895613,-0.138896 2.3237353,-0.389105 l 2.150971,3.726067 1.305836,0.862256 -0.09339,-1.562644 -2.108949,-3.652916 c 0.303056,-0.203509 0.592475,-0.424952 0.849805,-0.677042 1.124791,-1.0944037 1.831906,-2.6756482 1.831906,-4.3704264 -0.479913,-0.0047 -0.986109,-1.67e-5 -1.411673,-0.00467 -6.04e-4,1.8678956 -0.556646,2.3119779 -1.232684,3.1019443 -0.226547,0.2610362 -0.488112,0.4841064 -0.765758,0.6879374 l -1.357193,-2.351749 0.410895,-0.3626465 c 0.09864,-0.097481 0.136965,-0.1877295 0.136965,-0.2552528 h 0.0078 V 4.2754898 C 11.086616,3.7954607 10.698832,3.4007821 10.21323,3.4007821 H 9.6949416 V 2.0077868 2 H 8.7564211 Z m 0.9307392,2.3346291 0.00618,0.010895 c 0.5107169,0.00607 0.9307392,0.4159119 0.9307392,0.9276262 0,0.5116674 -0.4200223,0.9216059 -0.9307392,0.9276256 h -0.00618 c -0.510717,0 -0.9307392,-0.4159582 -0.9307392,-0.9276256 0,-0.5117143 0.4200222,-0.9276262 0.9307392,-0.9276262 z m -0.7035024,3.7805433 0.2708178,0.238132 c 0.121402,0.1200192 0.2793786,0.1805442 0.431128,0.1805442 v -0.00775 l 0.00783,0.00783 c 0.1593391,0 0.3188722,-0.060526 0.4326846,-0.1805449 l 0.270813,-0.2381331 1.1735403,2.0326827 c -0.521265,0.153809 -1.0985632,0.244359 -1.6031118,0.244359 -0.7288842,0 -1.413275,-0.18353 -2.0140067,-0.4902727 z"
     id="path822"
     inkscape:connector-curvature="0" />
</svg>

<?xml version="1.0" encoding="UTF-8"?>
<!-- Created with Inkscape (http://www.inkscape.org/) -->
<svg width="18" height="18" version="1.1" xmlns="http://www.w3.org/2000/svg" xmlns:cc="http://creativecommons.org/ns#" xmlns:dc="http://purl.org/dc/elements/1.1/" xmlns:rdf="http://www.w3.org/1999/02/22-rdf-syntax-ns#">
	<defs>
		<style id="current-color-scheme" type="text/css">.ColorScheme-Text {color:#090d11;}.ColorScheme-Background{color:#ffffff;}</style>
	</defs>
	<metadata>
		<rdf:RDF>
			<cc:Work rdf:about="">
				<dc:format>image/svg+xml</dc:format>
				<dc:type rdf:resource="http://purl.org/dc/dcmitype/StillImage"/>
			</cc:Work>
		</rdf:RDF>
	</metadata>
	<path id="c" class="ColorScheme-Text" d="m7.8281 2v1.4004h-0.5293c-0.47802 0-0.87109 0.39462-0.87109 0.86719v2.2852h0.00781c-0.00759 0.075036 0.036112 0.15838 0.13477 0.25586l0.41406 0.36328-4.1953 7.2656-0.095703 1.5625 1.3066-0.86133 2.3027-3.9902c0.82186 0.42129 1.7569 0.65234 2.7441 0.65234 0.75392 0 1.5881-0.13846 2.3223-0.38867l2.1523 3.7266 1.3047 0.86133-0.09375-1.5625-2.1074-3.6523c0.30306-0.20351 0.59228-0.42564 0.84961-0.67773 1.1248-1.0944 1.832-2.6763 1.832-4.3711-0.47991-0.0047-0.98655 7.471e-4 -1.4121-0.00391-6.04e-4 1.8679-0.55638 2.3116-1.2324 3.1016-0.22655 0.26104-0.48798 0.48367-0.76562 0.6875l-1.3574-2.3516 0.41016-0.36133c0.09864-0.097481 0.13672-0.18834 0.13672-0.25586h0.0078v-2.2773c-0.0076-0.48003-0.39526-0.875-0.88086-0.875h-0.51757v-1.4004h-0.93945zm0.92969 2.334 0.00586 0.011719c0.51072 0.00607 0.93164 0.41602 0.93164 0.92773 0 0.51167-0.42092 0.92171-0.93164 0.92773h-0.00586c-0.51072 0-0.92969-0.41607-0.92969-0.92773 0-0.51171 0.41897-0.92773 0.92969-0.92773zm-0.70312 3.7812 0.27148 0.23828c0.1214 0.12002 0.27794 0.17969 0.42969 0.17969v-0.00781l0.00781 0.00781c0.15934 0 0.31978-0.059669 0.43359-0.17969l0.26953-0.23828 1.1738 2.0332c-0.52126 0.15381-1.097 0.24414-1.6016 0.24414-0.72888 0-1.4149-0.18349-2.0156-0.49023z" style="fill-opacity:.75;fill:currentColor"/>
	<path id="d" class="ColorScheme-Background" d="m7.8281 1c-0.55226 5.52e-5 -0.99994 0.44774-1 1v0.5957c-0.77359 0.22881-1.4004 0.82724-1.4004 1.6719v2.2852c5.786e-4 0.2968 0.13296 0.57801 0.36133 0.76758 0.039844 0.046313 0.044011 0.16358 0.080078 0.19922l-0.16016-0.13867-3.7852 6.5566c-0.077748 0.1342-0.12322 0.28465-0.13281 0.43945l-0.095703 1.5625c-0.050282 0.82388 0.86278 1.3506 1.5508 0.89453l1.3047-0.86133c0.12928-0.08546 0.23693-0.1998 0.31445-0.33398l1.9473-3.3691c0.72207 0.24717 1.436 0.53125 2.2344 0.53125 0.59569 0 1.197-0.16469 1.7969-0.30078l1.8105 3.1367c0.07728 0.1349 0.18495 0.24992 0.31445 0.33594l1.3066 0.86133c0.68766 0.45339 1.5979-0.07232 1.5488-0.89453l-0.09375-1.5625c-9e-3 -0.15464-0.0538-0.30508-0.13086-0.43945l-1.6816-2.9102c0.08351-0.07267 0.17299-0.12394 0.25391-0.20313 1.3197-1.2841 2.1348-3.115 2.1348-5.0879-2.8e-5 -0.54847-0.44179-0.99459-0.99024-1-0.4933-0.00483-1.0026 5.759e-4 -1.4121-0.00391-0.55607-0.00537-1.0097 0.4439-1.0098 1-4.62e-4 1.4283-0.25631 1.6357-0.76953 2.1856l-0.3125-0.53906-0.16016 0.14062c0.04924-0.048659 0.04818-0.15449 0.09375-0.21094 0.22016-0.18951 0.34704-0.46537 0.34766-0.75586v-2.2773c4.1e-5 -0.00521 4.1e-5 -0.010417 0-0.015625-0.01301-0.82529-0.63265-1.4234-1.3984-1.6582v-0.60156c-5.5e-5 -0.55226-0.44774-0.99994-1-1h-0.93945zm0 1h1.8672v1.4004h0.51758c0.4856 0 0.87329 0.39497 0.88086 0.875v2.2773h-0.0078c-2e-6 0.067523-0.03808 0.15838-0.13672 0.25586l-0.41017 0.36133 1.3574 2.3516c0.27765-0.20383 0.53908-0.42646 0.76562-0.6875 0.67604-0.78997 1.2318-1.2337 1.2324-3.1016 0.42556 0.00465 0.9322-7.938e-4 1.4121 0.00391 0 1.6948-0.70724 3.2767-1.832 4.3711-0.25733 0.25209-0.54655 0.47422-0.84961 0.67773l2.1074 3.6523 0.09375 1.5625-1.3047-0.86133-2.1523-3.7266c-0.73417 0.25021-1.5683 0.38867-2.3223 0.38867-0.98727 0-1.9223-0.23105-2.7441-0.65234l-2.3027 3.9902-1.3066 0.86133 0.095703-1.5625 4.1953-7.2656-0.41406-0.36328c-0.098654-0.097481-0.14236-0.18082-0.13477-0.25586h-0.00781v-2.2852c0-0.47256 0.39308-0.86719 0.87109-0.86719h0.52929v-1.3926zm0.92969 2.334v0.011719c-0.51072 0-0.92969 0.41602-0.92969 0.92773 0 0.51167 0.41897 0.92773 0.92969 0.92773h0.00586c0.51072-0.00602 0.93164-0.41607 0.93164-0.92773 0-0.51171-0.42092-0.92166-0.93164-0.92773zm-0.70312 3.7812-1.0312 1.7871c0.60073 0.30674 1.2867 0.49023 2.0156 0.49023 0.50455 0 1.0803-0.09033 1.6016-0.24414l-1.1738-2.0332-0.26953 0.23828c-0.11381 0.12002-0.27425 0.17969-0.43359 0.17969l-0.00781-0.00781v0.00781c-0.15175 0-0.30829-0.059668-0.42969-0.17969z" style="fill-opacity:.5;fill:currentColor"/>
</svg>
